kiosk-igrinskij/images/907a8f4bb6c9f22d5d71471f94209fb8.svg

<svg fill="none" height="18" viewBox="0 0 12 18" width="12" xmlns="http://www.w3.org/2000/svg"><path d="m4.13201 0v1.31202h-4.13201v15.35678l4.13201.0034v1.3278l7.54439-1.3677.0078-15.25505zm1.25132 8.39744c.25337 0 .45879.26979.45879.60256 0 .33284-.20538.60256-.45879.60256s-.4588-.26972-.4588-.60256c-.00003-.33277.20542-.60256.4588-.60256zm-4.15651 7.03406v-12.88121h2.90519v12.88361z" fill="#f1e9dd"/></svg>

<svg width="12" height="18" viewBox="0 0 12 18" fill="none" xmlns="http://www.w3.org/2000/svg">
<path d="M4.13201 0V1.31202H0V16.6688L4.13201 16.6722V18L11.6764 16.6323L11.6842 1.37725L4.13201 0ZM5.38333 8.39744C5.6367 8.39744 5.84212 8.66723 5.84212 9C5.84212 9.33284 5.63674 9.60256 5.38333 9.60256C5.12992 9.60256 4.92453 9.33284 4.92453 9C4.9245 8.66723 5.12995 8.39744 5.38333 8.39744ZM1.22682 15.4315V2.55029H4.13201V15.4339L1.22682 15.4315Z" fill="#F1E9DD"/>
</svg>
